X:213
T:Sly Reynard (Hannaford)
%%VWML:SBG-1-2-120-0
F:http://www.vwml.org/record/SBG/1/2/120
Z:Original Sibelius transcriptions by M. & S. Graebe
M:4/4
I:linebreak $
K:G
V:1 treble nm="P1"
V:1
 D | DB BB d2 cB | BAAB c3 B | ccdd e2 dB | AGGF G2 | GA | B2 BB d2 cB |$ AGAB A2 AB | cdec A2 Bc | %9
 ddcA G2 | Bc |$ dded d2 e>d | d2 e>d d2 GB | dd ed BB d>d | c2 A>G G2 x2 | %15

